src/renderer/assets/icon/imoocSidebar-default-icon.svg

<?xml version="1.0" encoding="UTF-8"?>
<svg width="44px" height="44px" viewBox="0 0 44 44" version="1.1" xmlns="http://www.w3.org/2000/svg" xmlns:xlink="http://www.w3.org/1999/xlink">
    <!-- Generator: Sketch 58 (84663) - https://sketch.com -->
    <desc>Created with Sketch.</desc>
    <defs>
        <linearGradient x1="50%" y1="0%" x2="50%" y2="100%" id="linearGradient-1">
            <stop stop-color="#F21D33" offset="0%"></stop>
            <stop stop-color="#D71027" offset="100%"></stop>
        </linearGradient>
        <circle id="path-2" cx="22" cy="22" r="22"></circle>
        <polygon id="path-4" points="0 5.45454545e-05 19.9754545 5.45454545e-05 19.9754545 35.8282727 0 35.8282727"></polygon>
    </defs>
    <g id="sideBarItem/__logoWithColorBg/--muke" stroke="none" stroke-width="1" fill="none" fill-rule="evenodd">
        <mask id="mask-3" fill="white">
            <use xlink:href="#path-2"></use>
        </mask>
        <use id="colorBg" fill="url(#linearGradient-1)" xlink:href="#path-2"></use>
        <g id="编组" mask="url(#mask-3)">
            <g transform="translate(12.000000, 4.000000)">
                <mask id="mask-5" fill="white">
                    <use xlink:href="#path-4"></use>
                </mask>
                <g id="Clip-2" stroke="none" fill="none"></g>
                <path d="M8.42210909,5.45454545e-05 C8.44101818,0.146963636 8.44729091,0.248327273 8.46756364,0.346690909 C8.8352,2.12532727 8.71029091,3.86950909 8.10201818,5.57941818 C7.60829091,6.9676 6.76465455,8.15623636 5.90747273,9.32814545 C4.13401818,11.7528727 2.50256364,14.2563273 1.26529091,17.0071455 C0.0452,19.7198727 -0.406254545,22.4980545 0.419381818,25.4040545 C1.26438182,28.3778727 3.07629091,30.7054182 5.36883636,32.7018727 C5.39447273,32.7242364 5.44356364,32.7197818 5.59210909,32.7510545 C3.67683636,30.6745091 2.68456364,28.3174182 2.72565455,25.5733273 C2.76674545,22.8351455 3.78601818,20.5078727 5.79274545,18.4708727 C5.1492,20.8933273 5.62929091,22.9036 7.54556364,24.3617818 C9.65201818,25.9647818 11.8450182,25.7799636 14.0490182,24.2526 C15.5892,28.7310545 14.6774727,32.5567818 11.3128364,35.8283273 C11.7257455,35.5986 12.1071091,35.3563273 12.4761091,35.0965091 C14.8516545,33.4236 16.9772,31.5025091 18.4017455,28.9237818 C19.8134727,26.3683273 20.3592909,23.6326 19.6934727,20.7703273 C19.0451091,17.9829636 17.6687455,15.5346 15.7904727,13.3735091 C15.7442,13.3204182 15.6857455,13.2779636 15.5962909,13.1974182 C15.9272,14.1852364 15.9503818,14.5557818 15.7285636,15.0799636 C15.3635636,15.9425091 14.4562,16.4136 13.5411091,16.2157818 C12.5923818,16.0106 11.9593818,15.1808727 12.0338364,14.1271455 C12.1256545,12.8296 12.2660182,11.5351455 12.4090182,10.2419636 C12.5557455,8.91550909 12.7120182,7.5956 12.3665636,6.27250909 C11.7309273,3.83823636 10.3425636,1.86578182 8.61692727,0.0962363636 C8.58047273,0.0587818182 8.51838182,0.0463272727 8.42210909,5.45454545e-05" id="Fill-1" stroke="none" fill="#FFFFFF" fill-rule="evenodd" mask="url(#mask-5)"></path>
            </g>
        </g>
    </g>
</svg>

<svg width="44" height="44" xmlns="http://www.w3.org/2000/svg" xmlns:xlink="http://www.w3.org/1999/xlink">
    <defs>
        <linearGradient x1="50%" y1="0%" x2="50%" y2="100%" id="b">
            <stop stop-color="#F21D33" offset="0%"/>
            <stop stop-color="#D71027" offset="100%"/>
        </linearGradient>
        <circle id="a" cx="22" cy="22" r="22"/>
        <path id="d" d="M0 0h19.975v35.828H0z"/>
    </defs>
    <g fill="none" fill-rule="evenodd">
        <mask id="c" fill="#fff">
            <use xlink:href="#a"/>
        </mask>
        <use fill="url(#b)" xlink:href="#a"/>
        <g mask="url(#c)">
            <g transform="translate(12 4)">
                <mask id="e" fill="#fff">
                    <use xlink:href="#d"/>
                </mask>
                <path d="M8.422 0c.019.147.025.248.046.347a9.558 9.558 0 01-.366 5.232c-.494 1.389-1.337 2.577-2.195 3.75-1.773 2.424-3.404 4.927-4.642 7.678C.045 19.72-.406 22.498.42 25.404c.845 2.974 2.657 5.301 4.95 7.298.025.022.075.018.223.05-1.915-2.077-2.907-4.435-2.866-7.179.04-2.738 1.06-5.065 3.067-7.102-.644 2.422-.164 4.433 1.753 5.89 2.106 1.604 4.299 1.419 6.503-.108 1.54 4.478.628 8.304-2.736 11.575.413-.23.794-.472 1.163-.731 2.376-1.673 4.501-3.594 5.926-6.173 1.411-2.556 1.957-5.291 1.291-8.154-.648-2.787-2.024-5.235-3.903-7.396-.046-.054-.104-.096-.194-.177.331.988.354 1.359.133 1.883a1.92 1.92 0 01-2.188 1.136c-.949-.205-1.582-1.035-1.507-2.089.092-1.297.232-2.592.375-3.885.147-1.326.303-2.646-.042-3.97-.636-2.434-2.024-4.406-3.75-6.176C8.58.06 8.518.046 8.422 0" fill="#FFF" mask="url(#e)"/>
            </g>
        </g>
    </g>
</svg>
